X:1
T:Title
%%score { ( 1 3 ) | 2 }
L:1/8
M:6/8
K:F
V:1 treble nm="Grand Piano"
V:3 treble 
V:2 bass 
V:1
 z3 z2[Q:1/4=100] [CAc] | [FAc]2 [CFA] [CFA]2 [_EFc] | [DFc]2 [DFB] [DFB]2 [B,DG] | %3
 [A,CF]2 [A,CF] [EG][DF][EG] | A3- A2 c | c2 A A2 c | [DFc]2 [DFB] [DFB]2 [B,DG] | %7
 [A,CF]2 [CFA] [DG]DE | F3- F2 F | [EG]2 [EG] [EG]2 [Gc] | c2 =B B2 c | d2 c e2 d | %12
 [Cc]2- [C-Fc-] [CGc]2 [CGB] | [CFA]2 [=B,F_A] [CF=A]2 [_Ec] | .[Dc]3 z3 | [CF]2 [FA] [DG]DE | %16
 F3- F2 c | [Ec]2 c cd[Ec] | [Fc]2 [GB] [FA]2 [G^c] | [Fd]2 [Fd] ded | c2- [CFc-] [CGc]2 [CGB] | %21
 [CFA]2 [=B,F_A] [CF=A]2 [_EFc] | [DFc]2 [DFB] [DFB]2 [B,DG] | [A,CF]2 [CA] [DG]DE | F6 |] %25
V:2
 z3 z2 F, | F,2 F, F,2 A,, | B,,2 B,, B,,2 B,, | C,2 C, [C,C]2 [C,C] | [F,CF]3- [F,CF]2 [F,A,F] | %5
 [F,A,F]2 [F,CF] [F,CF]2 [F,_EF] | B,,2 B,, B,,2 B,, | C,2 C, [C,B,]2 [C,G,C] | %8
 [F,A,C]3- [F,A,C]2 [F,A,C] | [C,C]2 [C,C] [C,C]2 [E,C] | [G,DF]2 [G,DF] [G,DF]2 [A,CF] | %11
 [G,=B,F]2 [G,CE] [G,B,G]2[K:bass] [G,,B,F] | C,2 D, E,2 C, | F,2 F, F,2 [A,,F,] | %14
 .[B,,F,]2 [B,,G,] [B,,G,]2 [B,,B,] | [C,A,]2 [C,C] [C,B,]2 [C,G,C] | [F,A,C]3- [F,A,C]2 [F,A,F] | %17
 [C,G,]2 [C,A,] [C,B,]2 [C,B,] | [D,A,]2 [E,C] [F,C]2 [E,A,] | %19
 [D,A,]2 [D,A,][K:treble] [G,=B,F]2 [G,B,F] | C,2 D, E,2 C, | F,2 F, F,2 A,, | B,,2 B,, B,,2 B,, | %23
 C,2 C, [C,B,]2 [C,G,C] | [F,A,C]6 |] %25
V:3
 x6 | x6 | x6 | x6 | x6 | x6 | x6 | x6 | x6 | x6 | x6 | x6 | .E3 z3 | x6 | z ^F,[DB] [DB]2 [DG] | %15
 x6 | x6 | z3 .E3 | x6 | x6 | .[CE]3 z3 | x6 | x6 | x6 | x6 |] %25

